X:1
T:Gisburn Processional
C:Traditional
M:6/8
L:1/8
Q:3/8=108
K:D
ef|a3fed|f3agf|g3b3|a3gfe|f3edc|d3cBA|B3AGF|G2E2D2|]
